X: 197
T: Pour ung jamais
N: Derived from Rue3020-Pour_ung_jamais.krn
C: Pierre de la Rue
%%abc-version 2.0
%%abcx-abcm2ps-target-version 5.9.1 (29 Sep 2008)
%%abc-creator hum2abc beta
%%abcx-conversion-date 2019/02/17 08:01:18
%%abc-edited-by Jesse Rodin
%%abc-edited-by Chris Gage 06-17-2013
%%abcx-initial-encoding-date 2013/08/08/
%%humdrum-veritas 3853156523
%%humdrum-veritas-data 1347670377
%%linebreak <none>
%%barnumbers 0
L: 1/4
M: 2/1
Q: 1/2=120
V: 1 clef=treble
V: 2 clef=treble-8
V: 3 clef=bass
K: C
[V:1] z8 | 
[V:2] z8 | 
[V:3] E,8 | 
[V:1] z8 | 
[V:2] z8 | 
[V:3] F,4D,2E,2- | 
[V:1] z8 | 
[V:2] e8 | 
[V:3] E,2D,C,G,2A,2- | 
[V:1] z8 | 
[V:2] f4d2e2- | 
[V:3] A,2G,F,G,4 | 
[V:1] B8 | 
[V:2] e2dcd4 | 
[V:3] z4G,4 | 
[V:1] c4A2B2- | 
[V:2] c4z2d2 | 
[V:3] A,4F,2G,2- | 
[V:1] B2AGA4 | 
[V:2] e4f4 | 
[V:3] G,2F,E,D,4 | 
[V:1] G4z2A2 | 
[V:2] e2e4dc | 
[V:3] E,4A,,4 | 
[V:1] B4c4 | 
[V:2] d2e2A4 | 
[V:3] z4A,4 | 
[V:1] B2B4AG | 
[V:2] z2e2g4 | 
[V:3] G,2G,4F,E, | 
[V:1] A2B2E4 | 
[V:2] f2e4dc | 
[V:3] D,2G,2A,4 | 
[V:1] z2B2d4 | 
[V:2] d2e2f4 | 
[V:3] G,3F,D,4 | 
[V:1] c2B4AG | 
[V:2] e8 | 
[V:3] z2G,4F,E, | 
[V:1] A2B2c3B | 
[V:2] d4c2d2- | 
[V:3] F,2G,2A,2F,2 | 
[V:1] BAA4^G2 | 
[V:2] dcBAB4 | 
[V:3] G,2A,2E,4 | 
[V:1] A8- | 
[V:2] A4z2c2 | 
[V:3] z4A,,4 | 
[V:1] A8 | 
[V:2] f4f4 | 
[V:3] D,4D,4 | 
[V:1] z4E4 | 
[V:2] e4z2c2 | 
[V:3] C,4A,,2C,2- | 
[V:1] F4F4 | 
[V:2] d4d4 | 
[V:3] C,2B,,A,,B,,4 | 
[V:1] E8 | 
[V:2] c4z2e2 | 
[V:3] C,4z2C,2 | 
[V:1] z4z2G2 | 
[V:2] f4e4 | 
[V:3] D,4C,2E,2 | 
[V:1] A4G4 | 
[V:2] z2d2e2e2 | 
[V:3] F,3E,C,2E,2 | 
[V:1] z2A2B2B2 | 
[V:2] fedcd4 | 
[V:3] D,C,B,,A,,G,,2G,2 | 
[V:1] cBAGA4 | 
[V:2] c4z2d2 | 
[V:3] A,G,F,E,F,4 | 
[V:1] G4z2A2 | 
[V:2] e2c3def | 
[V:3] E,4z2A,2 | 
[V:1] B2G3ABc | 
[V:2] g2g4fe | 
[V:3] G,2E,2G,4 | 
[V:1] d2c4B2 | 
[V:2] fedcd4 | 
[V:3] z4G,4 | 
[V:1] c8 | 
[V:2] c4z2f2 | 
[V:3] A,2A,2F,2A,2- | 
[V:1] z4z2c2 | 
[V:2] f4f4 | 
[V:3] A,G,F,4E,D, | 
[V:1] c4c4 | 
[V:2] e4c4 | 
[V:3] C,8 | 
[V:1] B4G4 | 
[V:2] d2e3dcB | 
[V:3] z4E,4 | 
[V:1] A2B3AGF | 
[V:2] A2d2d2d2 | 
[V:3] F,2G,3F,E,D, | 
[V:1] E2G2G2G2 | 
[V:2] e2dcBcde | 
[V:3] C,4z2G,2 | 
[V:1] A2GFE2A2- | 
[V:2] f2edc4 | 
[V:3] D,E,F,G,A,2F,2- | 
[V:1] AGFEF4 | 
[V:2] d8 | 
[V:3] F,E,D,C,_B,,3A,, | 
[V:1] E4z2G2 | 
[V:2] c8- | 
[V:3] C,4z2C,2 | 
[V:1] A4A4 | 
[V:2] c8 | 
[V:3] F,4F,4 | 
[V:1] G2FEF4- | 
[V:2] z2c2d4 | 
[V:3] E,2C,4B,,A,, | 
[V:1] F4E4 | 
[V:2] d4c2BA | 
[V:3] B,,4C,4 | 
[V:1] z2B2c2c2 | 
[V:2] B4A4 | 
[V:3] z2G,2F,E,F,2 | 
[V:1] B2AGA4 | 
[V:2] z2e2f2f2 | 
[V:3] G,2E,2D,C,D,2 | 
[V:1] G4z2d2 | 
[V:2] e3cd4 | 
[V:3] E,2C,2B,,A,,B,,2 | 
[V:1] e2e2d2B2 | 
[V:2] cdefg4 | 
[V:3] C,4z2E,2 | 
[V:1] B2c2dcBA | 
[V:2] z2e2f2f2 | 
[V:3] E,4D,4 | 
[V:1] G4A4 | 
[V:2] e2c4d2 | 
[V:3] E,2E,2F,4 | 
[V:1] G4z2c2 | 
[V:2] edcBA4 | 
[V:3] E,4z2A,2 | 
[V:1] B2c4BA | 
[V:2] z2A3Bcd | 
[V:3] G,2A,2F,4 | 
[V:1] G2E3FGA | 
[V:2] efg4fe | 
[V:3] E,8 | 
[V:1] Bcd2c2B2- | 
[V:2] d2d2e4 | 
[V:3] z2G,2C,D,E,F, | 
[V:1] BAA4^G2 | 
[V:2] dcBAB4 | 
[V:3] G,2A,2E,4 | 
[V:1] A4z2c2 | 
[V:2] A4A4 | 
[V:3] A,,2F,2F,2F,2 | 
[V:1] B2c4BA | 
[V:2] z2A3Bcd | 
[V:3] G,2A,2F,4 | 
[V:1] G2E3FGA | 
[V:2] efg4fe | 
[V:3] E,2C,3D,E,F, | 
[V:1] Bcd2c2B2- | 
[V:2] d2d2e4 | 
[V:3] G,2D,2A,2G,2 | 
[V:1] BAA4^G2 | 
[V:2] dcBAB4 | 
[V:3] A,2F,2E,4 | 
[V:1] A8 |]  
[V:2] A8 |]  
[V:3] A,,8 |]  



